X:337
T:Pope Joan. (p)1695.PLFD.337
M:4/4
L:1/8
Q:1/2=100
S:Playford, Dancing Master,9th Ed,1695.
O:England
H:1695.
Z:Chris Partington.
K:Bb
A2|B4G2(AB)|A4^F2A2|B3cd2e2|c3BA2(Bc)|
B3AG2(AB)|A4G^FA2|(Bc)d2d2(ef)|g6:|
|:ga|b2(ag)f2(ed)|c2B2A2g2|(fg)(fd) (cd)(cB)|(AB)(AG)^F2(ga)|
b2(ag)f2(ed)|c3B (AB)(cd)|B2AGA2^F2|G6:|
|:A2|B3AB2c2|d2e2c2A2|B3AB2c2|d2e2c2A2|
B3AB2c2|d2e2c2BA|B2AGA2^F2|G6:|
|:A2|B2(AG)A2^F2|G2B2A2c2|B2(AG)A2^F2|G2B2A2(A/B/c)|
B2(AG)A2F2|G2B2A2c2|B2(AG)A2^F2|G6:|
